X:1
T:Is it night? - Webbe
T:#
%%score [ 1 2 3 ]
L:1/8
Q:1/4=90
M:3/4
K:Bb
V:1 treble-8 nm="Alto" snm="A"
V:2 treble-8 nm="Tenor" snm="T"
V:3 bass nm="Bass" snm="B"
V:1
"^allegretto""^My little heart shall have a home""^Samuel Webbe\n(1740-1816)" dd d | e3 c cc | %2
w: My lit- tle|heart shall have a|
 d4 f2 | e4 d2 | g2 Tf4 | =e3 c de |[M:3/4][K:treble-8] (f/=e/f/g/ f)_e dc | d4 d2 | c4 B2 | %9
w: home, A|warm and|shel- ter'd|rest, No gid- dy|flights * * * * shall make me|roam From|whence I|
 A2 TG4 | F3 |!p! cc c | d3 =e ee | f4 F2 | f2 _e4 | d6- | dd d2 d2 | e4 d2 | c6- | %19
w: am most|blest.|With love and|on'- ly that, dear|swain, What|tran- quil|joys,|* what tran- quil|joys I|fee;|
[Q:1/4=45] !fermata!c3[Q:1/4=90] d dd | e3 c cc | d4 f2 | e4 d2 | g2 (d2 Tc2) | B3 :| %25
w: * Fare- well, ye|false in- con- stant|train, For|one is|all to *|me.|
V:2
 FF F | G3 A AA | BF B4- |"^cresc." B6 | BB B2 =B2 | cG c2 _B2 |[M:3/4][K:treble-8] A3 c BA | %7
w: My lit- tle|heart shall have a|home, A warm||* and shel- ter'd|rest, No gid- dy|flights shall make me|
 G2 F4 | F4 F2 | F2 T=E4 | F3 |!p! AA A | B3 G GG | A6- | AA A2 A2 | B6- | B6 | BB B2 B2 | %18
w: road From|whence I|am most|blest.|With love and|on'- ly that, dear|swain,|* What tran- quil|joys,||* what tran- quil|
 BG Gc cB | !fermata!A3 B BF | G3 A AA | BF B2 B2 | B6- | B2 A4 | B3 :| %25
w: joys, what tran- quil joys I|fee; Fare- well, ye|false in- con- stant|train, for one is|all|* to|me.|
V:3
 B,,B,, B,, | E,3 F, F,F, | B,,4 D,2 | G,4 F,2 | E,2 TD,4 | C,3 C, C,C, |[M:3/4] F,3 F, F,F, | %7
w: My lit- tle|heart shall have a|home, A|warm and|shel- ter'd|rest, No gid- dy|flights shall make me|
 B,,4 B,,2 | A,,4 D,2 | C,2 C,4 | F,3 |!p! F,F, F, | B,,3 C, C,C, | F,6- | F,6 | z2 z2 B,,2 | %16
w: roam From|whence I|am most|blest.|With love and|on'- ly that, dear|swain,||What|
 B,2 _A,4 | G,4 F,2 | E,E, E,2 =E,2 | !fermata!F,3 B,, B,,B,, | E,3 F, F,F, | B,,4 D,2 | G,4 F,2 | %23
w: tran- quil|joys, what|tran- quil joys I|fee; Fare- well, ye|false in- con- stant|train, For|one is|
 E,2 F,4 | B,,3 :| %25
w: all to|me.|

